resources/icons/scopy-light/icons/io.svg

<?xml version="1.0" encoding="UTF-8"?>
<svg width="20px" height="16px" viewBox="0 0 20 16" version="1.1" xmlns="http://www.w3.org/2000/svg" xmlns:xlink="http://www.w3.org/1999/xlink">
    <title>ioD</title>
    <g id="ioD" stroke="none" stroke-width="1" fill="none" fill-rule="evenodd">
        <path d="M0,16 L2,16 L2,1.13686838e-13 L0,1.13686838e-13 L0,16 L0,16 Z M13,1.13686838e-13 C9.13606244,0.0049583633 6.00495836,3.13606244 6,7 L6,9 C6.00495836,12.8639376 9.13606244,15.9950416 13,16 L13,16 C16.8639376,15.9950416 19.9950416,12.8639376 20,9 L20,7 C19.9950416,3.13606244 16.8639376,0.0049583633 13,2.5243549e-29 L13,1.13686838e-13 Z M18,9 C18,11.7614237 15.7614237,14 13,14 C10.2385763,14 8,11.7614237 8,9 L8,7 C8,4.23857625 10.2385763,2 13,2 C15.7614237,2 18,4.23857625 18,7 L18,9 L18,9 Z" id="io" fill="#000000"></path>
    </g>
</svg>

<?xml version="1.0" encoding="UTF-8"?>
<svg width="20px" height="16px" version="1.1" viewBox="0 0 20 16" xmlns="http://www.w3.org/2000/svg">
 <g fill="#000" fill-opacity=".6" fill-rule="evenodd">
  <path d="m0 16h2v-16h-2v16zm13-16c-3.8639 0.0049584-6.995 3.1361-7 7v2c0.0049584 3.8639 3.1361 6.995 7 7 3.8639-0.0049584 6.995-3.1361 7-7v-2c-0.0049584-3.8639-3.1361-6.995-7-7v1.1369e-13zm5 9c0 2.7614-2.2386 5-5 5s-5-2.2386-5-5v-2c0-2.7614 2.2386-5 5-5s5 2.2386 5 5v2z"/>
 </g>
</svg>
